X: 12
T:Willie Coleman's
M:6/8
L:1/8
S:THSP
C:Willie Coleman
R:jig
K:G
"G"B2G AGE|GED G2d|edB dgb|"D"age dBA|
"G"B2G AGE|GED G2d|edB dBA|"D"BGF "G"G3:|:
"G"~g3 edB|"C"dgb age|"G"~g3 edB|"D"GBd e2f|
"G"~g3 edB|"C"dgb age|"G"dBd gdB|"D"AGF "G"G3:||
